icon-svg/nanoleaf-permanent-outdoor-light.svg

<svg xmlns="http://www.w3.org/2000/svg" viewBox="0 0 24 24"><path fill="#44739e" d="M13.842 12.385h.23v.531h-.23Zm.892-2.439-.174-.017-.015.191.174.016ZM7.708 8.843l.028.188L7.908 9l-.028-.188Zm1.057-.191.028.188.172-.03-.029-.189Zm4.962 1.198-.173-.016-.016.19.174.016Zm-.449 2.364h-1.471v3.459h1.471Zm-.22 3.222h-1.03V14.3h1.03Zm0-1.382h-1.03v-1.6h1.03Zm-.344-4.3-.173-.016-.015.19.173.016Zm7.302.693-.173-.017-.015.191.173.016Zm-3.107-.295-.173-.016-.015.19.173.016Zm1.081.103-.173-.017-.015.19.173.017Zm-2.163-.205-.174-.017-.015.19.174.017Zm2.44 2.295h.304v.611h-.304Zm-6.562-2.686-.174-.017-.015.19.174.017Zm7.228.685-.173-.016-.015.19.173.016Zm2.164.205-.173-.016-.015.19.173.017ZM2.515 13.578h4.429v.516H2.515Zm1.728-3.75-.028-.188-.172.031.028.188Zm-1 .18-.028-.188-.172.031.028.188Zm-.728 5.349h4.429v.516H2.515Zm2.731-5.71-.028-.188-.172.031.028.188ZM22 8.653v-.367h-4.559l-.569.421v.217l-.037.026.037.009V9.1l.156-.1.04.009v.038h.111v-.018l.052.012v.636l-4.6-.44.27-1.485-.054-.364-6.871 1.248v.144l-3.965.756-.011.483.039-.007v6.6h5.8l.056-.068 3.19.015v.051h10.878v-5.982H22v-.492h-.046V8.653Zm-4.6.106.065-.047v.067h.111v-.122h-.035l.01-.007h.113v.068h.112V8.65h.887v.07h.111v-.07h.926v.069h.111v-.068h.923v.067h.111v-.067h.92v.067h.015v.223h-2.902v.784h2.91v.389L17.4 9.693v-.8l-.058-.014h.111v-.12Zm4.362.323v.5H20.53v-.5Zm-1.362 0v.5h-1.393v-.5ZM17.336 8.8v.075h-.025v-.03h-.031ZM6.944 16.428v-.478H2.515v.478H2.2V10.2l.1-.017-.028-.193L2.2 10v-.019L6.462 9.2l-.134-.121L7.4 8.888l.015 7.54Zm.938-.136-.01.012-.027-5.13.037.02Zm3.2.179-3.122-.008.083-.1v-.027l.227-.22v.006h2.812Zm-3.039-.238v-4.947h.164l.008 4.78Zm1.072-.43V12.65h.343v3.15Zm.481 0V12.65h.346v3.15Zm.49 0V12.65h.342v3.15Zm.661.2v-3.667H8.8v3.67h-.471l-.008-4.72 2.736.008.029 4.714Zm11.049.42H11.253l-.031-5.315h-.047v-.077l-3.4.011.025 5.351-.026.033-.187-.011-.016-7.556 2.169-.383.028.189.172-.029-.028-.19.922-.163.028.185.172-.032-.028-.185.372-.065.037.941-1.315-.1-.013.472L21.8 10.611ZM10.751 9.568l-.173-.016-.015.19.173.016Zm-4.508-.1-.028-.189-.172.031.029.189Zm.601-.47.029.189.171-.031-.028-.189Zm-4.329 5.766h4.429v.516H2.515Zm0-2.371h4.429v.516H2.515Zm4.576-.224h.23v.531h-.23Zm-4.576 2.002h4.429v.516H2.515Zm0-1.186h4.429v.516H2.515Zm15.174-.771h-1.47v3.459h1.47Zm-.22 3.222h-1.03V14.3h1.03Zm0-1.382h-1.03v-1.6h1.03Z"/></svg>

<?xml version="1.0" encoding="UTF-8"?>
<svg width="24px" fill="#44739e" height="24px" viewBox="0 0 24 24" version="1.1" xmlns="http://www.w3.org/2000/svg" xmlns:xlink="http://www.w3.org/1999/xlink">
            <path d="m 13.842,12.385 h 0.23 v 0.531 h -0.23 z M 14.734,9.946 14.56,9.929 14.545,10.12 14.719,10.136 Z M 7.708,8.843 7.736,9.031 7.908,9 7.88,8.812 Z M 8.765,8.652 8.793,8.84 8.965,8.81 8.936,8.621 Z m 4.962,1.198 -0.173,-0.016 -0.016,0.19 0.174,0.016 z m -0.449,2.364 h -1.471 v 3.459 h 1.471 z m -0.22,3.222 h -1.03 V 14.3 h 1.03 z m 0,-1.382 h -1.03 v -1.6 h 1.03 z m -0.344,-4.3 -0.173,-0.016 -0.015,0.19 0.173,0.016 z m 7.302,0.693 -0.173,-0.017 -0.015,0.191 0.173,0.016 z m -3.107,-0.295 -0.173,-0.016 -0.015,0.19 0.173,0.016 z m 1.081,0.103 -0.173,-0.017 -0.015,0.19 0.173,0.017 z m -2.163,-0.205 -0.174,-0.017 -0.015,0.19 0.174,0.017 z m 2.44,2.295 h 0.304 v 0.611 H 18.267 Z M 11.705,9.659 11.531,9.642 11.516,9.832 11.69,9.849 Z m 7.228,0.685 -0.173,-0.016 -0.015,0.19 0.173,0.016 z m 2.164,0.205 -0.173,-0.016 -0.015,0.19 0.173,0.017 z M 2.5150001,13.578 H 6.944 v 0.516 H 2.5150001 Z M 4.243,9.828 4.215,9.64 4.043,9.671 4.071,9.859 Z m -1,0.18 L 3.215,9.82 3.043,9.851 3.071,10.039 Z M 2.5150001,15.357 H 6.944 v 0.516 H 2.5150001 Z M 5.246,9.647 5.218,9.459 5.046,9.49 5.074,9.678 Z M 22,8.653 V 8.286 H 17.441 L 16.872,8.707 V 8.924 L 16.835,8.95 16.872,8.959 V 9.1 l 0.156,-0.1 0.04,0.009 v 0.038 h 0.111 V 9.029 l 0.052,0.012 v 0.636 l -4.6,-0.44 0.27,-1.485 L 12.847,7.388 5.976,8.636 V 8.78 L 2.011,9.536 2,10.019 2.039,10.012 v 6.6 h 5.8 l 0.056,-0.068 3.19,0.015 V 16.61 H 21.963 V 10.628 H 22 V 10.136 H 21.954 V 8.653 Z m -4.6,0.106 0.065,-0.047 v 0.067 h 0.111 V 8.657 h -0.035 l 0.01,-0.007 h 0.113 v 0.068 h 0.112 V 8.65 h 0.887 v 0.07 h 0.111 V 8.65 H 19.7 v 0.069 h 0.111 V 8.651 h 0.923 v 0.067 h 0.111 V 8.651 h 0.92 v 0.067 h 0.015 v 0.223 h -2.902 v 0.784 h 2.91 v 0.389 L 17.4,9.693 v -0.8 L 17.342,8.879 h 0.111 v -0.12 z m 4.362,0.323 v 0.5 H 20.53 v -0.5 z m -1.362,0 v 0.5 h -1.393 v -0.5 z M 17.336,8.8 V 8.875 H 17.311 V 8.845 H 17.28 Z M 6.944,16.428 V 15.95 H 2.515 v 0.478 H 2.2 V 10.2 L 2.3,10.183 2.272,9.99 2.2,10 V 9.981 L 6.462,9.2 6.328,9.079 7.4,8.888 l 0.015,7.54 z m 0.938,-0.136 -0.01,0.012 -0.027,-5.13 0.037,0.02 z m 3.2,0.179 -3.122,-0.008 0.083,-0.1 v -0.027 l 0.227,-0.22 v 0.006 h 2.812 z M 8.043,16.233 v -4.947 h 0.164 l 0.008,4.78 z m 1.072,-0.43 V 12.65 h 0.343 v 3.15 z m 0.481,0 V 12.65 h 0.346 v 3.15 z m 0.49,0 V 12.65 h 0.342 v 3.15 z m 0.661,0.2 V 12.336 H 8.8 v 3.67 H 8.329 l -0.008,-4.72 2.736,0.008 0.029,4.714 z m 11.049,0.42 H 11.253 L 11.222,11.108 H 11.175 V 11.031 L 7.775,11.042 7.8,16.393 7.774,16.426 7.587,16.415 7.571,8.859 9.74,8.476 9.768,8.665 9.94,8.636 9.912,8.446 10.834,8.283 10.862,8.468 11.034,8.436 11.006,8.251 11.378,8.186 11.415,9.127 10.1,9.027 10.087,9.499 21.8,10.611 Z M 10.751,9.568 10.578,9.552 10.563,9.742 10.736,9.758 Z M 6.243,9.468 6.215,9.279 6.043,9.31 6.072,9.499 Z M 6.844,8.998 6.873,9.187 7.044,9.156 7.016,8.967 Z M 2.5150001,14.764 H 6.944 V 15.28 H 2.5150001 Z m 0,-2.371 H 6.944 v 0.516 H 2.5150001 Z m 4.576,-0.224 h 0.23 V 12.7 h -0.23 z m -4.576,2.002 H 6.944 v 0.515999 H 2.5150001 Z m 0,-1.186 H 6.944 v 0.516 H 2.5150001 Z M 17.689,12.214 h -1.47 v 3.459 h 1.47 z m -0.22,3.222 h -1.03 V 14.3 h 1.03 z m 0,-1.382 h -1.03 v -1.6 h 1.03 z"/>

</svg>
